P3
8 6
255
220 210 190 220 210 190 200 40 40 200 40 40 220 210 190 40 80 220 40 80 220 220 210 190
220 210 190 200 40 40 200 40 40 200 40 40 240 190 20 40 80 220 40 80 220 220 210 190
20 160 70 20 160 70 200 40 40 240 190 20 240 190 20 240 190 20 140 40 180 140 40 180
20 160 70 20 160 70 20 160 70 240 190 20 240 190 20 140 40 180 140 40 180 140 40 180
220 210 190 20 160 70 220 210 190 220 210 190 140 40 180 140 40 180 220 210 190 220 210 190
100 90 80 100 90 80 100 90 80 100 90 80 100 90 80 100 90 80 100 90 80 100 90 80

