P3
8 6
255
210 220 230 210 220 230 210 220 230 210 220 230 210 220 230 210 220 230 210 220 230 210 220 230
210 220 230 220 40 40 210 220 230 210 220 230 210 220 230 210 220 230 210 220 230 210 220 230
210 220 230 210 220 230 210 220 230 40 80 220 40 80 220 210 220 230 210 220 230 210 220 230
210 220 230 210 220 230 210 220 230 40 80 220 40 80 220 210 220 230 20 160 70 20 160 70
180 180 170 180 180 170 180 180 170 180 180 170 180 180 170 180 180 170 20 160 70 20 160 70
180 180 170 180 180 170 180 180 170 180 180 170 180 180 170 180 180 170 180 180 170 180 180 170

