P3
8 6
255
220 225 230 220 225 230 220 225 230 220 225 230 220 225 230 220 225 230 220 225 230 220 225 230
220 225 230 220 225 230 220 225 230 70 70 80 220 225 230 220 225 230 220 225 230 220 225 230
220 225 230 220 225 230 70 70 80 70 70 80 70 70 80 220 225 230 220 225 230 220 225 230
220 225 230 220 225 230 220 225 230 70 70 80 220 225 230 220 225 230 140 90 50 140 90 50
170 175 180 170 175 180 70 70 80 70 70 80 70 70 80 170 175 180 140 90 50 140 90 50
170 175 180 170 175 180 70 70 80 170 175 180 70 70 80 170 175 180 140 90 50 140 90 50

