P3
8 6
255
210 205 190 210 205 190 210 205 190 210 205 190 210 205 190 210 205 190 210 205 190 210 205 190
210 205 190 20 140 60 20 140 60 20 140 60 20 140 60 20 140 60 20 140 60 210 205 190
210 205 190 20 140 60 250 250 250 20 140 60 250 250 250 20 140 60 250 250 250 210 205 190
210 205 190 20 140 60 250 250 250 250 250 250 250 250 250 20 140 60 20 140 60 210 205 190
210 205 190 20 140 60 20 140 60 20 140 60 20 140 60 20 140 60 20 140 60 210 205 190
110 105 95 110 105 95 110 105 95 110 105 95 110 105 95 110 105 95 110 105 95 110 105 95

