P3
8 6
255
90 170 240 90 170 240 90 170 240 90 170 240 90 170 240 90 170 240 90 170 240 90 170 240
90 170 240 90 170 240 90 170 240 90 170 240 20 130 50 20 130 50 90 170 240 90 170 240
90 170 240 90 170 240 90 170 240 20 130 50 20 130 50 20 130 50 20 130 50 90 170 240
90 170 240 90 170 240 90 170 240 90 170 240 110 70 35 110 70 35 90 170 240 90 170 240
40 160 60 40 160 60 40 160 60 40 160 60 110 70 35 110 70 35 40 160 60 40 160 60
40 160 60 40 160 60 40 160 60 40 160 60 40 160 60 40 160 60 40 160 60 40 160 60

