P3
8 6
255
220 220 215 220 220 215 220 220 215 220 220 215 220 220 215 220 220 215 220 220 215 220 220 215
220 220 215 220 220 215 210 40 40 210 40 40 210 40 40 210 40 40 220 220 215 220 220 215
220 220 215 220 220 215 210 40 40 210 40 40 210 40 40 210 40 40 220 220 215 220 220 215
220 220 215 220 220 215 210 40 40 210 40 40 90 90 95 90 90 95 90 90 95 220 220 215
160 150 140 160 150 140 160 150 140 160 150 140 90 90 95 90 90 95 90 90 95 90 90 95
160 150 140 160 150 140 160 150 140 160 150 140 90 90 95 90 90 95 90 90 95 90 90 95

