P3
8 6
255
230 230 220 230 230 220 230 230 220 230 230 220 230 230 220 230 230 220 230 230 220 230 230 220
230 230 220 230 230 220 35 35 45 35 35 45 35 35 45 35 35 45 230 230 220 230 230 220
230 230 220 230 230 220 35 35 45 80 110 150 80 110 150 35 35 45 230 230 220 230 230 220
230 230 220 230 230 220 35 35 45 35 35 45 35 35 45 35 35 45 20 160 80 230 230 220
130 85 45 130 85 45 130 85 45 130 85 45 130 85 45 130 85 45 130 85 45 130 85 45
130 85 45 130 85 45 130 85 45 130 85 45 130 85 45 130 85 45 130 85 45 130 85 45

